; G-Code generated by Simplify3D(R) Version 4.1.2
; Aug 3, 2020 at 8:44:21 PM
; Settings Summary
;   processName,Process1
;   applyToModels,26364212-c2b0-4e8d-a5d9-5ba8d064cafd,26364212-c2b0-4e8d-a5d9-5ba8d064cafd(2)
;   profileName,Tarantula
;   profileVersion,2020-07-26 18:24:37
;   baseProfile,Default (modified)
;   printMaterial,PLA
;   printQuality,Medium
;   printExtruders,
;   extruderName,Primary Extruder
;   extruderToolheadNumber,0
;   extruderDiameter,0.4
;   extruderAutoWidth,1
;   extruderWidth,0.48
;   extrusionMultiplier,0.9
;   extruderUseRetract,1
;   extruderRetractionDistance,2
;   extruderExtraRestartDistance,0
;   extruderRetractionZLift,0
;   extruderRetractionSpeed,4800
;   extruderUseCoasting,0
;   extruderCoastingDistance,0.1
;   extruderUseWipe,0
;   extruderWipeDistance,5
;   primaryExtruder,0
;   layerHeight,0.2
;   topSolidLayers,6
;   bottomSolidLayers,6
;   perimeterOutlines,2
;   printPerimetersInsideOut,1
;   startPointOption,2
;   startPointOriginX,40
;   startPointOriginY,0
;   sequentialIslands,0
;   spiralVaseMode,0
;   firstLayerHeightPercentage,100
;   firstLayerWidthPercentage,130
;   firstLayerUnderspeed,0.1
;   useRaft,0
;   raftExtruder,0
;   raftTopLayers,2
;   raftBaseLayers,2
;   raftOffset,2
;   raftSeparationDistance,0.4
;   raftTopInfill,100
;   aboveRaftSpeedMultiplier,0.8
;   useSkirt,1
;   skirtExtruder,0
;   skirtLayers,1
;   skirtOutlines,6
;   skirtOffset,2
;   usePrimePillar,0
;   primePillarExtruder,999
;   primePillarWidth,12
;   primePillarLocation,7
;   primePillarSpeedMultiplier,1
;   useOozeShield,0
;   oozeShieldExtruder,999
;   oozeShieldOffset,2
;   oozeShieldOutlines,1
;   oozeShieldSidewallShape,1
;   oozeShieldSidewallAngle,30
;   oozeShieldSpeedMultiplier,1
;   infillExtruder,0
;   internalInfillPattern,Rectilinear
;   externalInfillPattern,Rectilinear
;   infillPercentage,16
;   outlineOverlapPercentage,50
;   infillExtrusionWidthPercentage,100
;   minInfillLength,3
;   infillLayerInterval,1
;   internalInfillAngles,45,-45
;   overlapInternalInfillAngles,0
;   externalInfillAngles,45,-45
;   generateSupport,1
;   supportExtruder,0
;   supportInfillPercentage,30
;   supportExtraInflation,0
;   supportBaseLayers,0
;   denseSupportExtruder,0
;   denseSupportLayers,0
;   denseSupportInfillPercentage,70
;   supportLayerInterval,1
;   supportHorizontalPartOffset,0.3
;   supportUpperSeparationLayers,1
;   supportLowerSeparationLayers,1
;   supportType,0
;   supportGridSpacing,4
;   maxOverhangAngle,45
;   supportAngles,0
;   temperatureName,Primary Extruder,Bed
;   temperatureNumber,0,1
;   temperatureSetpointCount,2,4
;   temperatureSetpointLayers,1,5,1,3,10,20
;   temperatureSetpointTemperatures,230,210,65,60,55,45
;   temperatureStabilizeAtStartup,1,1
;   temperatureHeatedBed,0,1
;   fanLayers,1,3,6,9,12
;   fanSpeeds,0,10,20,30,50
;   blipFanToFullPower,0
;   adjustSpeedForCooling,1
;   minSpeedLayerTime,15
;   minCoolingSpeedSlowdown,15
;   increaseFanForCooling,1
;   minFanLayerTime,45
;   maxCoolingFanSpeed,60
;   increaseFanForBridging,1
;   bridgingFanSpeed,60
;   use5D,1
;   relativeEdistances,0
;   allowEaxisZeroing,1
;   independentExtruderAxes,0
;   includeM10123,0
;   stickySupport,1
;   applyToolheadOffsets,0
;   gcodeXoffset,0
;   gcodeYoffset,0
;   gcodeZoffset,0
;   overrideMachineDefinition,1
;   machineTypeOverride,0
;   strokeXoverride,181
;   strokeYoverride,194
;   strokeZoverride,185
;   originOffsetXoverride,0
;   originOffsetYoverride,0
;   originOffsetZoverride,0
;   homeXdirOverride,-1
;   homeYdirOverride,-1
;   homeZdirOverride,-1
;   flipXoverride,1
;   flipYoverride,-1
;   flipZoverride,1
;   toolheadOffsets,0,0|0,0|0,0|0,0|0,0|0,0
;   overrideFirmwareConfiguration,1
;   firmwareTypeOverride,RepRap (Marlin/Repetier/Sprinter)
;   GPXconfigOverride,r2
;   baudRateOverride,250000
;   overridePrinterModels,1
;   printerModelsOverride
;   startingGcode,
;   layerChangeGcode,
;   retractionGcode,
;   toolChangeGcode,
;   endingGcode,
;   exportFileFormat,gcode
;   celebration,0
;   celebrationSong,Take On Me
;   postProcessing,"curl.exe" -i -X POST -H "Content-Type: multipart/form-data" -H "x-api-key: afe60757-246d-4a5b-bc5f-df6c7276703a" -F "a=upload" -F "filename=@[output_filepath]" "http://repetier-server:3344/printer/model/Tarantula1"
;   defaultSpeed,3600
;   outlineUnderspeed,0.5
;   solidInfillUnderspeed,0.75
;   supportUnderspeed,0.8
;   rapidXYspeed,4800
;   rapidZspeed,450
;   minBridgingArea,50
;   bridgingExtraInflation,0
;   bridgingExtrusionMultiplier,1
;   bridgingSpeedMultiplier,1
;   useFixedBridgingAngle,0
;   fixedBridgingAngle,0
;   applyBridgingToPerimeters,0
;   filamentDiameters,1.75|1.75|1.75|1.75|1.75|1.75
;   filamentPricesPerKg,46|46|46|46|46|46
;   filamentDensities,1.25|1.25|1.25|1.25|1.25|1.25
;   useMinPrintHeight,0
;   minPrintHeight,0
;   useMaxPrintHeight,0
;   maxPrintHeight,5
;   useDiaphragm,0
;   diaphragmLayerInterval,20
;   robustSlicing,1
;   mergeAllIntoSolid,0
;   onlyRetractWhenCrossingOutline,1
;   retractBetweenLayers,1
;   useRetractionMinTravel,0
;   retractionMinTravel,3
;   retractWhileWiping,0
;   onlyWipeOutlines,1
;   avoidCrossingOutline,1
;   maxMovementDetourFactor,10
;   toolChangeRetractionDistance,12
;   toolChangeExtraRestartDistance,-0.5
;   toolChangeRetractionSpeed,600
;   externalThinWallType,1
;   internalThinWallType,1
;   thinWallAllowedOverlapPercentage,10
;   singleExtrusionMinLength,1
;   singleExtrusionMinPrintingWidthPercentage,50
;   singleExtrusionMaxPrintingWidthPercentage,200
;   singleExtrusionEndpointExtension,0.2
;   horizontalSizeCompensation,0
G90
M82
M106 S0
M140 S65
M190 S65
M104 S230 T0
M109 S230 T0
; process Process1
; layer 1, Z = 0.200
T0
G92 E0.0000
G1 E-2.0000 F4800
; feature skirt
; tool H0.200 W0.624
G1 Z0.200 F450
G1 X69.020 Y69.059 F4800
G1 E0.0000 F4800
G92 E0.0000
G1 X69.670 Y68.473 E0.0408 F360
G1 X69.990 Y68.225 E0.0598
G1 X70.741 Y67.729 E0.1018
G1 X71.116 Y67.521 E0.1218
G1 X71.954 Y67.140 E0.1648
G1 X72.413 Y66.979 E0.1875
G1 X73.423 Y66.723 E0.2362
G1 X73.866 Y66.650 E0.2571
G1 X74.664 Y66.583 E0.2946
G1 X74.890 Y66.574 E0.3051
G1 X85.357 Y66.581 E0.7939
G1 X85.704 Y66.603 E0.8101
G1 X86.444 Y66.699 E0.8449
G1 X86.804 Y66.770 E0.8621
G1 X87.649 Y66.999 E0.9030
G1 X88.066 Y67.149 E0.9237
G1 X88.916 Y67.535 E0.9673
G1 X89.352 Y67.784 E0.9907
G1 X90.296 Y68.446 E1.0446
G1 X90.506 Y68.622 E1.0573
G1 X90.670 Y68.473 E1.0677
G1 X90.990 Y68.225 E1.0866
G1 X91.741 Y67.729 E1.1286
G1 X92.116 Y67.521 E1.1487
G1 X92.954 Y67.140 E1.1916
G1 X93.413 Y66.979 E1.2144
G1 X94.423 Y66.723 E1.2630
G1 X94.866 Y66.650 E1.2839
G1 X95.664 Y66.583 E1.3214
G1 X95.890 Y66.574 E1.3319
G1 X106.357 Y66.581 E1.8207
G1 X106.704 Y66.603 E1.8369
G1 X107.444 Y66.699 E1.8718
G1 X107.804 Y66.770 E1.8889
G1 X108.649 Y66.999 E1.9298
G1 X109.066 Y67.149 E1.9505
G1 X109.916 Y67.535 E1.9941
G1 X110.352 Y67.784 E2.0175
G1 X111.296 Y68.446 E2.0714
G1 X111.662 Y68.753 E2.0937
G1 X112.264 Y69.357 E2.1335
G1 X112.564 Y69.714 E2.1553
G1 X113.203 Y70.624 E2.2072
G1 X113.443 Y71.037 E2.2295
G1 X113.820 Y71.845 E2.2712
G1 X113.976 Y72.269 E2.2923
G1 X114.253 Y73.267 E2.3406
G1 X114.342 Y73.754 E2.3638
G1 X114.421 Y74.653 E2.4059
G1 X114.432 Y74.893 E2.4171
G1 X114.432 Y84.730 E2.8765
G1 X114.652 Y84.950 E2.8910
G1 X114.652 Y109.050 E4.0164
G1 X114.432 Y109.270 E4.0309
G1 X114.432 Y119.107 E4.4903
G1 X114.421 Y119.347 E4.5015
G1 X114.342 Y120.246 E4.5436
G1 X114.253 Y120.733 E4.5667
G1 X113.972 Y121.747 E4.6159
G1 X113.801 Y122.200 E4.6385
G1 X113.384 Y123.066 E4.6834
G1 X113.162 Y123.446 E4.7039
G1 X112.660 Y124.162 E4.7448
G1 X112.450 Y124.426 E4.7605
G1 X112.001 Y124.923 E4.7918
G1 X111.673 Y125.231 E4.8128
G1 X110.813 Y125.913 E4.8641
G1 X110.454 Y126.154 E4.8843
G1 X109.732 Y126.559 E4.9229
G1 X109.314 Y126.749 E4.9444
G1 X108.371 Y127.085 E4.9911
G1 X107.963 Y127.195 E5.0108
G1 X107.237 Y127.333 E5.0453
G1 X106.928 Y127.373 E5.0599
G1 X106.293 Y127.419 E5.0896
G1 X106.096 Y127.426 E5.0989
G1 X95.622 Y127.419 E5.5880
G1 X95.232 Y127.391 E5.6062
G1 X94.373 Y127.266 E5.6467
G1 X93.983 Y127.180 E5.6654
G1 X93.112 Y126.918 E5.7078
G1 X92.688 Y126.751 E5.7291
G1 X91.882 Y126.352 E5.7711
G1 X91.526 Y126.141 E5.7905
G1 X90.772 Y125.613 E5.8335
G1 X90.490 Y125.376 E5.8506
G1 X89.813 Y125.913 E5.8910
G1 X89.454 Y126.154 E5.9112
G1 X88.732 Y126.559 E5.9499
G1 X88.314 Y126.749 E5.9713
G1 X87.371 Y127.085 E6.0180
G1 X86.963 Y127.195 E6.0378
G1 X86.237 Y127.333 E6.0723
G1 X85.928 Y127.373 E6.0868
G1 X85.293 Y127.419 E6.1166
G1 X85.096 Y127.426 E6.1258
G1 X74.622 Y127.419 E6.6149
G1 X74.232 Y127.391 E6.6332
G1 X73.373 Y127.266 E6.6737
G1 X72.983 Y127.180 E6.6923
G1 X72.112 Y126.918 E6.7348
G1 X71.688 Y126.751 E6.7561
G1 X70.882 Y126.353 E6.7981
G1 X70.526 Y126.141 E6.8174
G1 X69.772 Y125.613 E6.8604
G1 X69.411 Y125.309 E6.8824
G1 X68.673 Y124.571 E6.9312
G1 X68.350 Y124.181 E6.9548
G1 X67.768 Y123.329 E7.0030
G1 X67.549 Y122.946 E7.0236
G1 X67.180 Y122.154 E7.0644
G1 X67.023 Y121.731 E7.0855
G1 X66.747 Y120.733 E7.1338
G1 X66.658 Y120.245 E7.1570
G1 X66.579 Y119.347 E7.1991
G1 X66.568 Y119.107 E7.2103
G1 X66.568 Y109.270 E7.6697
G1 X66.348 Y109.050 E7.6842
G1 X66.348 Y84.950 E8.8096
G1 X66.568 Y84.730 E8.8241
G1 X66.568 Y74.893 E9.2835
G1 X66.579 Y74.653 E9.2947
G1 X66.657 Y73.767 E9.3362
G1 X66.739 Y73.303 E9.3582
G1 X66.979 Y72.409 E9.4015
G1 X67.093 Y72.072 E9.4181
G1 X67.332 Y71.495 E9.4472
G1 X67.486 Y71.180 E9.4636
G1 X67.920 Y70.427 E9.5042
G1 X68.156 Y70.080 E9.5238
G1 X68.721 Y69.377 E9.5659
G1 X69.020 Y69.059 E9.5863
G92 E0.0000
G1 E-2.0000 F4800
G1 X69.457 Y69.506 F4800
G1 E0.0000 F4800
G92 E0.0000
G1 X70.071 Y68.952 E0.0386 F360
G1 X70.354 Y68.733 E0.0553
G1 X71.064 Y68.262 E0.0951
G1 X71.397 Y68.078 E0.1129
G1 X72.187 Y67.719 E0.1534
G1 X72.593 Y67.577 E0.1735
G1 X73.551 Y67.335 E0.2196
G1 X73.943 Y67.269 E0.2382
G1 X74.703 Y67.206 E0.2738
G1 X74.903 Y67.198 E0.2831
G1 X85.336 Y67.205 E0.7703
G1 X85.643 Y67.225 E0.7847
G1 X86.343 Y67.315 E0.8176
G1 X86.661 Y67.378 E0.8328
G1 X87.462 Y67.595 E0.8716
G1 X87.831 Y67.727 E0.8899
G1 X88.632 Y68.092 E0.9309
G1 X89.017 Y68.312 E0.9517
G1 X89.916 Y68.941 E1.0029
G1 X90.240 Y69.213 E1.0226
G1 X90.496 Y69.470 E1.0396
G1 X91.071 Y68.952 E1.0757
G1 X91.354 Y68.733 E1.0925
G1 X92.064 Y68.262 E1.1323
G1 X92.397 Y68.078 E1.1500
G1 X93.187 Y67.719 E1.1905
G1 X93.593 Y67.577 E1.2106
G1 X94.551 Y67.335 E1.2568
G1 X94.943 Y67.269 E1.2753
G1 X95.703 Y67.206 E1.3109
G1 X95.903 Y67.198 E1.3203
G1 X106.336 Y67.205 E1.8075
G1 X106.643 Y67.225 E1.8219
G1 X107.343 Y67.315 E1.8548
G1 X107.661 Y67.378 E1.8700
G1 X108.462 Y67.595 E1.9087
G1 X108.831 Y67.727 E1.9270
G1 X109.632 Y68.092 E1.9681
G1 X110.017 Y68.312 E1.9888
G1 X110.916 Y68.941 E2.0401
G1 X111.240 Y69.213 E2.0598
G1 X111.804 Y69.779 E2.0971
G1 X112.069 Y70.094 E2.1163
G1 X112.677 Y70.960 E2.1658
G1 X112.889 Y71.326 E2.1855
G1 X113.244 Y72.086 E2.2247
G1 X113.382 Y72.461 E2.2433
G1 X113.644 Y73.407 E2.2892
G1 X113.723 Y73.838 E2.3096
G1 X113.799 Y74.694 E2.3498
G1 X113.808 Y74.906 E2.3597
G1 X113.808 Y84.988 E2.8305
G1 X114.028 Y85.208 E2.8450
G1 X114.028 Y108.792 E3.9463
G1 X113.808 Y109.012 E3.9608
G1 X113.808 Y119.094 E4.4316
G1 X113.799 Y119.306 E4.4415
G1 X113.723 Y120.162 E4.4817
G1 X113.644 Y120.593 E4.5021
G1 X113.378 Y121.553 E4.5487
G1 X113.227 Y121.955 E4.5687
G1 X112.833 Y122.773 E4.6111
G1 X112.636 Y123.108 E4.6293
G1 X112.160 Y123.789 E4.6680
G1 X111.974 Y124.022 E4.6820
G1 X111.555 Y124.486 E4.7111
G1 X111.265 Y124.758 E4.7297
G1 X110.445 Y125.408 E4.7786
G1 X110.127 Y125.622 E4.7965
G1 X109.450 Y126.002 E4.8328
G1 X109.080 Y126.170 E4.8517
G1 X108.184 Y126.489 E4.8961
G1 X107.823 Y126.587 E4.9136
G1 X107.139 Y126.716 E4.9461
G1 X106.865 Y126.752 E4.9590
G1 X106.259 Y126.796 E4.9874
G1 X106.085 Y126.802 E4.9955
G1 X95.645 Y126.795 E5.4831
G1 X95.299 Y126.770 E5.4992
G1 X94.486 Y126.652 E5.5376
G1 X94.141 Y126.575 E5.5541
G1 X93.317 Y126.328 E5.5943
G1 X92.942 Y126.180 E5.6131
G1 X92.180 Y125.804 E5.6528
G1 X91.865 Y125.617 E5.6699
G1 X91.153 Y125.117 E5.7105
G1 X90.833 Y124.848 E5.7301
G1 X90.511 Y124.527 E5.7513
G1 X90.265 Y124.758 E5.7670
G1 X89.445 Y125.408 E5.8159
G1 X89.127 Y125.622 E5.8338
G1 X88.450 Y126.002 E5.8701
G1 X88.080 Y126.170 E5.8890
G1 X87.184 Y126.489 E5.9334
G1 X86.823 Y126.587 E5.9509
G1 X86.139 Y126.716 E5.9834
G1 X85.865 Y126.752 E5.9963
G1 X85.259 Y126.796 E6.0247
G1 X85.085 Y126.802 E6.0328
G1 X74.645 Y126.795 E6.5204
G1 X74.299 Y126.770 E6.5365
G1 X73.486 Y126.652 E6.5749
G1 X73.141 Y126.575 E6.5914
G1 X72.317 Y126.328 E6.6316
G1 X71.941 Y126.180 E6.6504
G1 X71.180 Y125.804 E6.6901
G1 X70.865 Y125.617 E6.7072
G1 X70.153 Y125.117 E6.7478
G1 X69.833 Y124.848 E6.7673
G1 X69.135 Y124.151 E6.8134
G1 X68.849 Y123.805 E6.8344
G1 X68.297 Y122.998 E6.8800
G1 X68.104 Y122.659 E6.8982
G1 X67.756 Y121.914 E6.9366
G1 X67.618 Y121.539 E6.9553
G1 X67.356 Y120.593 E7.0011
G1 X67.277 Y120.162 E7.0216
G1 X67.201 Y119.306 E7.0617
G1 X67.192 Y119.094 E7.0717
G1 X67.192 Y109.011 E7.5425
G1 X66.972 Y108.792 E7.5570
G1 X66.972 Y85.208 E8.6583
G1 X67.192 Y84.989 E8.6728
G1 X67.192 Y74.906 E9.1436
G1 X67.201 Y74.694 E9.1535
G1 X67.276 Y73.849 E9.1931
G1 X67.349 Y73.439 E9.2126
G1 X67.576 Y72.590 E9.2536
G1 X67.677 Y72.291 E9.2683
G1 X67.900 Y71.753 E9.2956
G1 X68.037 Y71.474 E9.3101
G1 X68.449 Y70.759 E9.3486
G1 X68.658 Y70.452 E9.3659
G1 X69.192 Y69.787 E9.4058
G1 X69.457 Y69.506 E9.4238
G92 E0.0000
G1 E-2.0000 F4800
G1 X69.894 Y69.952 F4800
G1 E0.0000 F4800
G92 E0.0000
G1 X70.471 Y69.431 E0.0363 F360
G1 X70.718 Y69.240 E0.0509
G1 X71.388 Y68.796 E0.0884
G1 X71.678 Y68.636 E0.1039
G1 X72.420 Y68.299 E0.1419
G1 X72.773 Y68.175 E0.1595
G1 X73.679 Y67.946 E0.2031
G1 X74.020 Y67.889 E0.2192
G1 X74.742 Y67.829 E0.2530
G1 X74.916 Y67.822 E0.2612
G1 X85.316 Y67.829 E0.7468
G1 X85.583 Y67.846 E0.7593
G1 X86.242 Y67.931 E0.7903
G1 X86.519 Y67.986 E0.8035
G1 X87.275 Y68.190 E0.8401
G1 X87.596 Y68.306 E0.8560
G1 X88.348 Y68.648 E0.8946
G1 X88.683 Y68.839 E0.9126
G1 X89.535 Y69.436 E0.9612
G1 X89.817 Y69.673 E0.9784
G1 X90.343 Y70.201 E1.0132
G1 X90.505 Y70.394 E1.0250
G1 X90.663 Y70.197 E1.0367
G1 X90.894 Y69.952 E1.0524
G1 X91.471 Y69.431 E1.0888
G1 X91.718 Y69.240 E1.1033
G1 X92.388 Y68.796 E1.1409
G1 X92.678 Y68.636 E1.1563
G1 X93.420 Y68.299 E1.1944
G1 X93.773 Y68.175 E1.2119
G1 X94.679 Y67.946 E1.2555
G1 X95.020 Y67.889 E1.2717
G1 X95.742 Y67.829 E1.3055
G1 X95.916 Y67.822 E1.3136
G1 X106.316 Y67.829 E1.7993
G1 X106.583 Y67.846 E1.8118
G1 X107.242 Y67.931 E1.8428
G1 X107.519 Y67.986 E1.8560
G1 X108.275 Y68.190 E1.8926
G1 X108.596 Y68.306 E1.9085
G1 X109.348 Y68.648 E1.9470
G1 X109.683 Y68.839 E1.9651
G1 X110.535 Y69.436 E2.0137
G1 X110.817 Y69.673 E2.0309
G1 X111.343 Y70.201 E2.0656
G1 X111.573 Y70.475 E2.0824
G1 X112.151 Y71.297 E2.1293
G1 X112.335 Y71.615 E2.1465
G1 X112.667 Y72.326 E2.1831
G1 X112.788 Y72.653 E2.1994
G1 X113.036 Y73.546 E2.2426
G1 X113.104 Y73.921 E2.2605
G1 X113.176 Y74.735 E2.2986
G1 X113.184 Y74.920 E2.3073
G1 X113.184 Y85.247 E2.7895
G1 X113.404 Y85.467 E2.8040
G1 X113.404 Y108.533 E3.8811
G1 X113.184 Y108.753 E3.8957
G1 X113.184 Y119.080 E4.3779
G1 X113.176 Y119.265 E4.3865
G1 X113.104 Y120.079 E4.4247
G1 X113.036 Y120.454 E4.4425
G1 X112.784 Y121.359 E4.4864
G1 X112.653 Y121.709 E4.5038
G1 X112.282 Y122.479 E4.5438
G1 X112.111 Y122.771 E4.5596
G1 X111.660 Y123.415 E4.5963
G1 X111.498 Y123.618 E4.6084
G1 X111.110 Y124.048 E4.6354
G1 X110.857 Y124.285 E4.6516
G1 X110.077 Y124.904 E4.6981
G1 X109.800 Y125.090 E4.7137
G1 X109.167 Y125.445 E4.7476
G1 X108.845 Y125.591 E4.7641
G1 X107.998 Y125.893 E4.8061
G1 X107.684 Y125.978 E4.8213
G1 X107.040 Y126.100 E4.8519
G1 X106.802 Y126.131 E4.8631
G1 X106.226 Y126.172 E4.8901
G1 X106.074 Y126.178 E4.8972
G1 X95.667 Y126.171 E5.3831
G1 X95.367 Y126.150 E5.3972
G1 X94.599 Y126.038 E5.4335
G1 X94.298 Y125.971 E5.4478
G1 X93.521 Y125.738 E5.4857
G1 X93.195 Y125.609 E5.5021
G1 X92.478 Y125.255 E5.5394
G1 X92.204 Y125.092 E5.5543
G1 X91.533 Y124.622 E5.5926
G1 X91.255 Y124.388 E5.6095
